lib/preview/nrk-logo-preview-nrk-jazz-on-dark.svg

<svg width="72" height="14" viewBox="0 0 72 14" fill="none" xmlns="http://www.w3.org/2000/svg">
<path d="M0 13.0017V1.0028H3.93719V13.0017H0ZM9.29381 2.91249L11.5581 13.0017H7.24917L4.54549 1.0028H6.96218C7.51635 0.995607 8.05406 1.19096 8.4745 1.5521C8.89562 1.89809 9.18495 2.37841 9.29381 2.91249ZM12.1495 13.0017V1.0028H16.0867V13.0017H12.1495ZM19.0605 5.56581C18.6362 5.56995 18.2188 5.45894 17.8525 5.24467C17.4912 5.03583 17.1911 4.73567 16.9823 4.37431C16.7678 4.00804 16.6568 3.59047 16.661 3.16603C16.6561 2.74417 16.7672 2.32909 16.9823 1.96614C17.1933 1.6087 17.4931 1.3118 17.8525 1.10423C18.2189 0.890211 18.6362 0.779224 19.0605 0.783093C19.4822 0.778551 19.8971 0.889638 20.2602 1.10423C20.616 1.31362 20.9127 1.61027 21.122 1.96614C21.3368 2.32919 21.4479 2.7442 21.4433 3.16603C21.4473 3.59044 21.3363 4.00794 21.122 4.37431C20.9149 4.73408 20.6179 5.03399 20.2602 5.24467C19.8971 5.45969 19.4819 5.5708 19.0599 5.56581H19.0605ZM22.0516 13.0017V1.0028H25.9892V13.0017H22.0516ZM30.9737 7.55994C30.9848 7.57158 31.0693 7.70959 31.2272 7.97398C31.3851 8.23837 31.5907 8.57639 31.8439 8.988C32.0974 9.39942 32.3649 9.83597 32.6463 10.2977C32.9278 10.7594 33.1926 11.1961 33.4408 11.6075C33.6881 12.0189 33.9697 12.4836 34.2857 13.0017H29.9598C29.6893 12.5623 29.4441 12.1652 29.2245 11.8103C29.0048 11.4554 28.7713 11.0723 28.5238 10.6611C28.2758 10.2502 28.0306 9.85025 27.7882 9.46117C27.5458 9.0721 27.3375 8.73132 27.1633 8.43877C26.9883 8.14602 26.8671 7.94883 26.7997 7.84725C26.6325 7.59515 26.5336 7.304 26.5127 7.00225C26.5294 6.71264 26.6226 6.43269 26.7828 6.19082C26.8504 6.07815 26.9743 5.87814 27.1545 5.59084C27.3348 5.30354 27.546 4.96276 27.7882 4.56843C28.0304 4.1741 28.2756 3.77131 28.5238 3.36008C28.772 2.94885 29.0056 2.56294 29.2245 2.20241C29.4445 1.84226 29.6897 1.4423 29.9598 1.00252H34.2857L30.9396 6.46121C30.8361 6.62327 30.7777 6.81005 30.7706 7.00225C30.7818 7.20403 30.8522 7.39803 30.9731 7.55994H30.9737Z" fill="white"/>
<path d="M42.1209 10.2704C42.124 10.4665 42.0898 10.6613 42.02 10.8444C41.9568 11.007 41.8592 11.1538 41.734 11.2749C41.6039 11.397 41.4489 11.4892 41.2797 11.5451C41.0844 11.6095 40.8797 11.6408 40.6741 11.6379C40.5395 11.6379 40.4133 11.6323 40.2955 11.621C40.1778 11.6097 40.06 11.5957 39.9423 11.5788C39.8245 11.5619 39.7068 11.5421 39.589 11.5194C39.4713 11.4967 39.3507 11.4715 39.2273 11.4438C39.1039 11.4156 38.9805 11.3847 38.8572 11.3509L38.9918 12.8703C39.1488 12.9153 39.3002 12.9574 39.446 12.9966C39.5918 13.0363 39.7376 13.0698 39.8834 13.0982C40.0335 13.1267 40.1852 13.1464 40.3376 13.157C40.4947 13.1683 40.6685 13.174 40.8591 13.1742C41.2481 13.1803 41.636 13.1319 42.0116 13.0304C42.3179 12.9469 42.6061 12.8067 42.8612 12.6171C43.0912 12.443 43.2878 12.2285 43.4416 11.984C43.5944 11.7387 43.7079 11.4709 43.778 11.1902C43.852 10.895 43.8887 10.5915 43.8874 10.287V1.00171H42.1209V10.2704Z" fill="#C8A1F5"/>
<path d="M53.8468 11.9249C53.7238 11.9362 53.6 11.9175 53.4857 11.8705C53.3715 11.8235 53.2703 11.7495 53.1906 11.6548C53.0347 11.3843 52.9698 11.0705 53.0056 10.76L53.0393 7.28226C53.043 6.91767 52.9977 6.55425 52.9047 6.2018C52.8229 5.89263 52.6861 5.60083 52.5009 5.34051C52.3137 5.08614 52.0759 4.87346 51.8027 4.71587C51.4852 4.53511 51.142 4.40424 50.7849 4.32784C50.3483 4.2332 49.9025 4.18791 49.4559 4.19279C49.1015 4.19252 48.7475 4.21499 48.396 4.26004C48.0639 4.30218 47.7351 4.36712 47.4118 4.45445C47.1121 4.53592 46.8172 4.63458 46.5286 4.7499L46.3267 6.1849C46.6071 6.08379 46.8735 5.99937 47.1258 5.93166C47.3782 5.86394 47.6222 5.80767 47.8577 5.76284C48.0885 5.71866 48.3216 5.68776 48.5559 5.67027C48.7854 5.65339 49.0125 5.64484 49.2372 5.64465C49.5802 5.63739 49.9226 5.67717 50.255 5.76284C50.4975 5.82374 50.7205 5.94588 50.9027 6.11765C51.065 6.28455 51.181 6.49116 51.2391 6.71697C51.3109 6.9953 51.3449 7.28209 51.3401 7.56954L51.3381 7.99301L49.3718 8.12665C48.6992 8.14554 48.0366 8.29447 47.4203 8.5653C46.9592 8.76796 46.561 9.09167 46.2678 9.5023C46.0191 9.86778 45.8871 10.3005 45.8893 10.7431C45.8862 11.1585 45.9874 11.5679 46.1837 11.9336C46.3896 12.3091 46.6993 12.6167 47.0754 12.8197C47.5343 13.0593 48.0472 13.1756 48.5642 13.1573C49.0486 13.1685 49.5308 13.0884 49.9858 12.9213C50.3791 12.7668 50.739 12.5375 51.0457 12.246C51.1621 12.134 51.2725 12.016 51.3765 11.8923C51.4092 12.0672 51.4708 12.2353 51.5588 12.3897C51.7089 12.6481 51.9394 12.8498 52.2149 12.9637C52.5195 13.0866 52.8456 13.1469 53.1739 13.141C53.2748 13.141 53.373 13.1379 53.4683 13.1326C53.5619 13.1269 53.6548 13.1127 53.7459 13.0901C53.8356 13.0676 53.9166 13.0482 53.9898 13.031C54.0557 13.0164 54.1204 12.9966 54.1832 12.9719L54.3683 11.8411C54.2754 11.873 54.1796 11.8956 54.0823 11.9086C54.0042 11.9189 53.9255 11.9243 53.8468 11.9249ZM51.0457 11.1652C50.8633 11.3099 50.6658 11.4346 50.4568 11.5369C50.2486 11.6384 50.0281 11.7122 49.8008 11.7564C49.5652 11.8018 49.3257 11.8243 49.0858 11.8236C48.8116 11.8316 48.5389 11.7798 48.2866 11.6717C48.0813 11.5824 47.9082 11.4323 47.7904 11.2414C47.6738 11.0391 47.6156 10.8082 47.6221 10.5746C47.6059 10.293 47.6828 10.014 47.8408 9.78085C48.0241 9.56643 48.2723 9.41818 48.5474 9.3588C48.9772 9.25738 49.4183 9.21207 49.8596 9.22402H51.3328L51.3253 10.8996C51.2398 10.9959 51.1462 11.0849 51.0457 11.1652Z" fill="#C8A1F5"/>
<path d="M62.3255 5.57709L62.1236 4.37816H55.6298L55.4279 5.72877H60.3134L55.2768 11.8402L55.4787 12.9882H62.3426L62.5276 11.6207H57.3856L62.3255 5.57709Z" fill="#C8A1F5"/>
<path d="M65.8643 11.621L70.8048 5.57743L70.6026 4.37847H64.1088L63.9069 5.72907H68.7921L63.7555 11.8405L63.9574 12.9885H70.8213L71.0064 11.621H65.8643Z" fill="#C8A1F5"/>
</svg>

<svg xmlns="http://www.w3.org/2000/svg" viewBox="0 0 72 14"><path fill="#fff" d="M0 13.002v-12h3.937v12H0Zm9.294-10.09 2.264 10.09H7.25l-2.704-12h2.417a2.276 2.276 0 0 1 1.513.55c.42.346.71.826.819 1.36Zm2.855 10.09v-12h3.938v12h-3.938Zm6.912-7.436a2.382 2.382 0 0 1-2.4-2.4 2.301 2.301 0 0 1 .321-1.2 2.41 2.41 0 0 1 3.278-.862c.356.21.653.506.862.862.215.363.326.778.321 1.2a2.35 2.35 0 0 1-.321 1.208 2.4 2.4 0 0 1-.862.87 2.302 2.302 0 0 1-1.2.322Zm2.99 7.436v-12h3.938v12h-3.937Zm8.923-5.442c.01.012.095.15.253.414s.364.602.617 1.014a315.274 315.274 0 0 1 1.597 2.62c.247.41.529.876.845 1.394H29.96c-.27-.44-.516-.837-.736-1.192-.22-.355-.453-.738-.7-1.149-.248-.41-.493-.81-.736-1.2-.242-.389-.45-.73-.625-1.022a17.97 17.97 0 0 0-.363-.592 1.747 1.747 0 0 1-.287-.845c.016-.29.11-.57.27-.811.067-.113.191-.313.371-.6s.392-.628.634-1.023c.242-.394.488-.797.736-1.208l.7-1.158.736-1.2h4.326l-3.346 5.46a1.08 1.08 0 0 0-.17.54c.012.202.082.396.203.558Z"/><path fill="#C8A1F5" d="M42.12 10.27c.004.197-.03.391-.1.574-.063.163-.16.31-.286.43-.13.123-.285.215-.454.271a1.85 1.85 0 0 1-.606.093c-.135 0-.26-.006-.379-.017a7.586 7.586 0 0 1-.706-.102 8.897 8.897 0 0 1-.732-.168l.135 1.52.454.126c.146.04.292.073.437.101.15.029.302.048.455.059.157.011.33.017.521.017.39.006.777-.042 1.153-.144.306-.083.594-.223.85-.413a2.39 2.39 0 0 0 .58-.633c.152-.245.266-.513.336-.794a3.65 3.65 0 0 0 .11-.903V1.002H42.12v9.268ZM53.847 11.925a.765.765 0 0 1-.656-.27 1.458 1.458 0 0 1-.185-.895l.033-3.478a4.073 4.073 0 0 0-.134-1.08 2.659 2.659 0 0 0-.404-.861 2.284 2.284 0 0 0-.698-.625 3.564 3.564 0 0 0-1.018-.388 5.966 5.966 0 0 0-1.33-.135c-.353 0-.707.022-1.059.067-.332.042-.66.107-.984.194-.3.082-.595.18-.883.296l-.202 1.435a10.025 10.025 0 0 1 1.53-.422c.232-.044.465-.075.699-.093.23-.017.457-.025.681-.025a3.76 3.76 0 0 1 1.018.118c.242.06.465.183.648.355.162.167.278.373.336.599a3.2 3.2 0 0 1 .101.853l-.002.423-1.966.134a5.214 5.214 0 0 0-1.952.438c-.46.203-.859.527-1.152.937-.249.366-.38.798-.379 1.241-.003.415.098.825.295 1.19.206.376.515.684.891.887.46.24.972.356 1.49.337.484.011.966-.069 1.42-.236a3.279 3.279 0 0 0 1.06-.675c.117-.112.227-.23.331-.354.033.175.095.343.183.498.15.258.38.46.656.574.304.123.63.183.959.177.1 0 .199-.003.294-.008.094-.006.187-.02.278-.043l.244-.059c.066-.015.13-.034.193-.06l.185-1.13a1.487 1.487 0 0 1-.286.068c-.078.01-.157.015-.235.016Zm-2.801-.76a3.24 3.24 0 0 1-.59.372 2.652 2.652 0 0 1-.655.22 3.722 3.722 0 0 1-.715.067 1.89 1.89 0 0 1-.8-.152 1.098 1.098 0 0 1-.496-.43 1.265 1.265 0 0 1-.168-.667c-.016-.282.06-.561.219-.794.183-.215.431-.363.706-.422.43-.102.871-.147 1.313-.135h1.473l-.008 1.676c-.085.096-.179.185-.28.265ZM62.325 5.577l-.201-1.199H55.63l-.202 1.35h4.885l-5.036 6.112.202 1.148h6.864l.185-1.367h-5.142l4.94-6.044ZM65.864 11.621l4.94-6.044-.201-1.199h-6.494l-.202 1.351h4.885l-5.037 6.112.202 1.148h6.864l.185-1.368h-5.142Z"/></svg>
